icons/desktop/16/svg/trending-16.svg

<svg width="16" height="16" viewBox="0 0 16 16" fill="none" xmlns="http://www.w3.org/2000/svg">
<path fill-rule="evenodd" clip-rule="evenodd" d="M7.82637 0.999023C8.26656 0.999039 8.83533 1.02831 9.48945 1.13965L9.71797 1.19238C10.827 1.51912 11.3925 2.76048 10.965 3.8252L10.3166 5.4375C11.0884 5.44325 11.8767 5.48298 12.7541 5.58301C14.298 5.75887 14.9935 7.54332 14.1125 8.73633L14.0227 8.84961L8.52363 15.2979C7.21475 16.8325 4.7394 15.6646 5.05586 13.6904L5.58711 10.3633C5.11621 10.3415 4.60218 10.3027 4.05293 10.2295L3.65547 10.1719C2.41199 9.97801 1.70157 8.68077 2.12129 7.53418L3.80586 2.93848C4.12301 2.07177 4.85679 1.40761 5.77851 1.21289C6.36246 1.08938 7.05334 0.999023 7.82637 0.999023ZM7.82637 2.49902C7.33369 2.49902 6.88069 2.5419 6.47676 2.60742L6.08906 2.67969C5.69317 2.76319 5.36081 3.05307 5.21406 3.4541L3.53047 8.0498C3.42232 8.34515 3.61649 8.64828 3.88691 8.69043C4.87152 8.84433 5.74562 8.88766 6.46113 8.88574C6.68102 8.88519 6.89048 8.98132 7.0334 9.14844C7.17627 9.31558 7.23802 9.53775 7.20332 9.75488L6.53633 13.9277C6.45688 14.4234 7.06889 14.6913 7.38203 14.3242L12.8811 7.87598C13.1275 7.58713 12.9657 7.17064 12.6496 7.08594L12.5842 7.07324C11.6951 6.97188 10.9047 6.93556 10.1184 6.93555C9.81697 6.93555 9.51965 6.94141 9.22871 6.95117C9.22057 6.95144 9.21244 6.95215 9.2043 6.95215C8.95527 6.95215 8.72074 6.82836 8.58125 6.62207C8.44194 6.41586 8.41438 6.15383 8.50703 5.92285L9.57344 3.2666L9.60371 3.15527C9.63815 2.93318 9.51392 2.72566 9.3332 2.64648L9.23847 2.61816C8.68313 2.52362 8.19998 2.49904 7.82637 2.49902Z" fill="black"/>
</svg>

<!-- This Source Code Form is subject to the terms of the Mozilla Public
   - License, v. 2.0. If a copy of the MPL was not distributed with this
   - file, You can obtain one at http://mozilla.org/MPL/2.0/. -->
<svg xmlns="http://www.w3.org/2000/svg" width="16" height="16" fill="context-fill" fill-opacity="context-fill-opacity" viewBox="0 0 16 16">
    <path fill-rule="evenodd" d="M7.826.999c.44 0 1.01.03 1.663.14l.229.053c1.109.327 1.675 1.568 1.247 2.633l-.648 1.612c.771.006 1.56.046 2.437.146 1.544.176 2.24 1.96 1.359 3.153l-.09.114-5.5 6.448c-1.308 1.534-3.784.367-3.467-1.608l.531-3.327c-.47-.021-.985-.06-1.534-.133l-.398-.058C2.412 9.978 1.702 8.68 2.121 7.534l1.685-4.596a2.7 2.7 0 0 1 1.973-1.725A10 10 0 0 1 7.826.999m0 1.5c-.492 0-.945.043-1.35.108l-.387.073a1.2 1.2 0 0 0-.875.774L3.53 8.05a.48.48 0 0 0 .357.64c.985.154 1.859.198 2.574.196a.75.75 0 0 1 .742.869l-.667 4.173c-.08.495.533.763.846.396l5.5-6.448a.49.49 0 0 0-.232-.79l-.066-.013c-.889-.101-1.68-.137-2.466-.137q-.452 0-.89.015l-.024.001a.75.75 0 0 1-.697-1.03l1.066-2.655.03-.112a.48.48 0 0 0-.27-.509l-.095-.028A8.4 8.4 0 0 0 7.826 2.5" clip-rule="evenodd" />
</svg>
